X:1
T:Minueto
T:Minueto
T:J.S.Bach
T:Arr. A.G.Chico
C:J.S.Bach
Z:Arr. A.G.Chico
%%score ( 1 2 )
L:1/8
Q:1/4=88
M:3/4
K:G
V:1 treble-8 nm="Guitarra clásica" snm="Guit."
V:2 treble-8 
V:1
 !4!g2 !2!f2 e2 | !2!f2 B2 B2 | e2 !2!E!4!F !0!G!2!A | !0!B6 | c2 dc BA | B2 cB !3!AG | %6
 !3!A2 BA G!2!A | !4!F2 BA GF | g2 f2 e2 | f2 B2 B2 | e2 EF GA | B6 | d2 ed cB | c2 dc BA | %14
 B2 e2 A2 | G6 :| B2 GA B!2!^c | !2!d2 e2 !2!f2 | !2!g2 e!1!f !2!ge | !2!f2 ef d2 | DE FG AB | %21
 c2 B2 !2!A2 | !4!d2 !4!g2 !3!f2 | !4!g6 | E2 BA B2 | E2 cB c2 | EB ^DA EG | %27
 F2 !4!F!2!E !1!^D!4!^C | !2!B,!4!^C !1!^D!2!E !4!FG | A2 G2 !4!F2 | GA/B/ E2 ^D2 | E6 |] %32
V:2
 !1!E6 | !0!D6 | !3!C6 | !1!B,2 !4!B!2!A !0!G!4!F | E4 !4!F2 | G4 !2!E2 | !1!^D4 !1!E2 | F2 x4 | %8
 E6 | D6 | C6 | B,2 !4!BA !1!^G!4!F | !1!^G4 E2 | A4 D2 | G2 C2 D2 | B,2 G,4 :| G,6 | %17
 !3!F2 !1!E2 D2 | E2 !3!^C2 A,2 | D6 | x6 | E2 D2 !3!C2 | !1!B,2 !2!C2 D2 | !2!G,2 D2 C2 | !1!B,6 | %25
 A,6 | E2 ^D2 E2 | F2 x4 | x6 | C2 B,2 A,2 | G,2 A,2 B,2 | z2 E,4 |] %32

